X:1
T:Transformed
T:Bentley DeForest Ackley
T:Transformed
T:Public Domain
T:Public Domain
C:Bentley DeForest Ackley
Z:Public Domain
%%score ( 1 2 ) ( 3 4 )
L:1/8
M:4/4
K:F
V:1 treble 
V:2 treble 
V:3 bass 
V:4 bass 
V:1
 C2 | [FA]3 [FB] [FA]F [EG]>[EA] | [CF]6 [_EF]2 | [DB]3 [FB] [FA]2 [F^G]2 | [FA]6 [FA]2 | %5
w: 1.~Dear|take up our tan- gled strands,|we have|wrought in vain, That|by the|
w: 2.~Touch|the sad, dis- cord- ant keys|ev- ery|trou- bled breast, And|change to|
w: 3.~Where|en vows in frag- ments lie—|toil of|wast- ed years— Do|Thou make|
w: 4.~Take|the fail- ures, each mis- take|our poor|hu- man ways, Then,|Sav- ior,|
 [EA]3 [EG] [^D^F][EG] [EB]>E | [DF]6 [DF]2 | [DF]3 [FA] [EG]2 [DF]2 | ([CE]2 [EG]4) || %9
w: skill of Thy dear hands Some|ty may|re- main. * *||
w: peace- ful har- mo- nies The|ings of|un- rest. Trans- formed|by *|
w: whole a- gain, we cry, And|a song|for tears. * *||
w: for Thine own dear sake, Make|show forth|Thy praise. * *||
"^Refrain" C2 | (z2 F2 F2) [FB]2 | [FA]>[EG] [EG]4 C2 | (z2 E2 E2) [EA]2 | [CG]>[CF] [CF]4 [FA]2 | %14
w: |||||
w: grace|* * di-|* The glo- ry|* * shall|* Thine; To Thy|
w: |||||
w: |||||
 [Fc]3 [FA] [FG]2 [FA]2 | [Fc]>[FB] [FB]4 [FB]2 | [FA]3 [GB] [FA]2 (EC) | [CF]6 |] %18
w: ||||
w: most ho- ly will,|O Lord, We now|our all re- sign. *||
w: ||||
w: ||||
V:2
 C2 | x5 F x2 | x8 | x8 | x8 | x15/2 E/ | x8 | x8 | x6 || x2 | A6 x2 | x8 | G6 x2 | x8 | x8 | x8 | %16
w: Lord,|Where||||beau-|||||||||||
w: Thou|Of||||sigh-|||||vine,||be||||
w: brok-|The||||give|||||||||||
w: all|Of||||them|||||||||||
 x6 G2 | x6 |] %18
w: ||
w: ||
w: ||
w: ||
V:3
 [F,A,]2 | [F,C]3 [F,D] [F,C][F,A,] [C,B,]>[C,C] | [F,A,]6 [F,A,]2 | %3
w: ~|~ ~ ~ ~ ~ ~|~ ~|
 [F,B,]3 [F,D] [F,C]2 [F,=B,]2 | [F,C]6 [F,C]2 | [C,C]3 [C,B,] [C,A,][C,B,] [C,G,]>[C,B,] | %6
w: ~ ~ ~ ~|~ ~|~ ~ ~ ~ ~ ~|
 [D,A,]6 [D,A,]2 | [G,=B,]3 [G,B,] [G,B,]2 G,2 | (G,2 B,4) || z2 | z2 [F,C]2 [F,C]2 [F,D]2 | %11
w: ~ ~|~ ~ ~ ~|Trans- *||~ ~ ~|
 [C,C]>[C,B,] [C,B,]4 z2 | z2 [C,B,]2 [C,B,]2 [C,C]2 | [F,B,]>[F,A,] [F,A,]4 [F,C]2 | %14
w: ~ The glo-|ry * *||
 [F,A,]3 [F,C] [F,_E]2 [F,E]2 | [B,,D]>[B,,D] [B,,D]4 [B,,D]2 | [C,C]3 [C,C] [C,C]2 [C,B,]2 | %17
w: |||
 [F,A,]6 |] %18
w: |
V:4
 x2 | x8 | x8 | x8 | x8 | x8 | x8 | x6 G,2 | C,6 || x2 | x8 | x8 | x8 | x8 | x8 | x8 | x8 | x6 |] %18
w: |||||||~|formed||||||||||

